site/433.svg

<svg viewBox="0 0 746 240" xmlns="http://www.w3.org/2000/svg">
  <g fill="none" fill-rule="evenodd">
    <g fill="#3A3C42">
      <path d="M718.944779 76.4653211h-18.0382301l21.2028318-74.51009174h22.4686726L718.944779 76.4653211ZM666.7288497 76.4653211h-18.03823004L669.8934515 1.95522936h22.4686726L666.7288497 76.4653211Z"/>
    </g>
    <path d="M216.001652 74.5100917h-18.03823L219.166254 0h22.468672l-25.633274 74.5100917Z" fill="#3A3C42"/>
    <path d="M1.86359882 162.689174v12.365505H92.0547493l-6.9621239 25.682202c-4.4304425 16.804403-9.4938053 19.975046-29.4307965 19.975046H46.800944l-2.8481416 12.682568h96.8368146l2.848141-12.682568h-8.227964c-10.126726 0-21.519293-2.21945-21.519293-12.682569 0-5.707156 1.265841-9.828991 2.531682-14.902019l4.746903-18.07266h37.658761l4.430442-15.853211h-37.975221L166.422891 9.86422018h-16.77239L1.86359882 162.689174ZM124.333687 54.5702752h.632921L96.1687316 159.201468H23.3828909L124.333687 54.5702752ZM368.640944 9.86422018c-26.266195 0-63.608496 16.17027522-63.608496 46.92550462 0 11.4143119 6.012744 20.9262385 18.354691 20.9262385 10.126725 0 18.98761-5.0730275 18.98761-17.1214679 0-11.0972477-12.025486-14.2678899-12.025486-21.560367 0-11.4143119 23.734513-16.4873394 31.329557-16.4873394 23.418053 0 36.07646 10.7801835 36.07646 34.8770642 0 23.1456881-17.72177 54.2179818-43.355044 54.2179818-6.329204 0-12.341947-1.268257-18.67115-1.268257-4.430443 0-9.177346 2.536514-9.177346 7.926605 0 5.390092 4.746903 7.926606 9.493806 7.926606 4.746902 0 8.860885-1.902385 18.03823-1.902385 19.620531 0 26.266195 19.023853 26.266195 34.877064 0 33.291743-17.72177 66.266422-55.380531 66.266422-11.076107 0-36.392921-4.438899-36.392921-19.340918 0-4.121834 3.481062-5.390091 6.645664-6.341284 8.227964-2.536514 14.240708-8.877798 14.240708-18.389725 0-10.780183-9.177345-19.340917-19.620531-19.340917-14.873628 0-22.152213 12.04844-22.152213 25.682202 0 36.145321 29.114337 50.413211 61.393275 50.413211 43.355044 0 83.545487-27.584587 83.545487-73.875964 0-25.365137-16.139469-41.535412-40.190443-45.657247v-.317065c29.430797-8.877798 56.013451-22.1944949 56.013451-58.339816 0-33.2917431-29.747256-50.09614682-59.810973-50.09614682Zm175.951858 0c-26.266194 0-63.608495 16.17027522-63.608495 46.92550462 0 11.4143119 6.012743 20.9262385 18.35469 20.9262385 10.126726 0 18.987611-5.0730275 18.987611-17.1214679 0-11.0972477-12.025487-14.2678899-12.025487-21.560367 0-11.4143119 23.734513-16.4873394 31.329557-16.4873394 23.418054 0 36.076461 10.7801835 36.076461 34.8770642 0 23.1456881-17.72177 54.2179818-43.355045 54.2179818-6.329203 0-12.341947-1.268257-18.67115-1.268257-4.430443 0-9.177345 2.536514-9.177345 7.926605 0 5.390092 4.746902 7.926606 9.493805 7.926606s8.860885-1.902385 18.03823-1.902385c19.620531 0 26.266195 19.023853 26.266195 34.877064 0 33.291743-17.72177 66.266422-55.380531 66.266422-11.076106 0-36.39292-4.438899-36.39292-19.340918 0-4.121834 3.481062-5.390091 6.645663-6.341284 8.227965-2.536514 14.240708-8.877798 14.240708-18.389725 0-10.780183-9.177345-19.340917-19.620531-19.340917-14.873628 0-22.152212 12.04844-22.152212 25.682202 0 36.145321 29.114336 50.413211 61.393274 50.413211 43.355044 0 83.545487-27.584587 83.545487-73.875964 0-25.365137-16.139469-41.535412-40.190443-45.657247v-.317065c29.430797-8.877798 56.013452-22.1944949 56.013452-58.339816 0-33.2917431-29.747257-50.09614682-59.810974-50.09614682Z" fill="#333"/>
  </g>
</svg>

<?xml version="1.0" encoding="UTF-8" standalone="no"?>
<svg width="746px" height="240px" viewBox="0 0 746 240" version="1.1" xmlns="http://www.w3.org/2000/svg" xmlns:xlink="http://www.w3.org/1999/xlink" xmlns:sketch="http://www.bohemiancoding.com/sketch/ns">
    <!-- Generator: Sketch 3.3.2 (12043) - http://www.bohemiancoding.com/sketch -->
    <title>Untitled 2</title>
    <desc>Created with Sketch.</desc>
    <defs></defs>
    <g id="Page-1" stroke="none" stroke-width="1" fill="none" fill-rule="evenodd" sketch:type="MSPage">
        <g id="433" sketch:type="MSLayerGroup">
            <g id="Path-+-Path" transform="translate(648.303835, 0.000000)" fill="#3A3C42" sketch:type="MSShapeGroup">
                <path d="M70.640944,76.4653211 L52.6027139,76.4653211 L73.8055457,1.95522936 L96.2742183,1.95522936 L70.640944,76.4653211 Z" id="Path"></path>
                <path d="M18.4250147,76.4653211 L0.386784661,76.4653211 L21.5896165,1.95522936 L44.0582891,1.95522936 L18.4250147,76.4653211 Z" id="Path"></path>
            </g>
            <path d="M216.001652,74.5100917 L197.963422,74.5100917 L219.166254,0 L241.634926,0 L216.001652,74.5100917 Z" id="Path" fill="#3A3C42" sketch:type="MSShapeGroup"></path>
            <path d="M1.86359882,162.689174 L1.86359882,175.054679 L92.0547493,175.054679 L85.0926254,200.736881 C80.6621829,217.541284 75.5988201,220.711927 55.6618289,220.711927 L46.800944,220.711927 L43.9528024,233.394495 L140.789617,233.394495 L143.637758,220.711927 L135.409794,220.711927 C125.283068,220.711927 113.890501,218.492477 113.890501,208.029358 C113.890501,202.322202 115.156342,198.200367 116.422183,193.127339 L121.169086,175.054679 L158.827847,175.054679 L163.258289,159.201468 L125.283068,159.201468 L166.422891,9.86422018 L149.650501,9.86422018 L1.86359882,162.689174 Z M124.333687,54.5702752 L124.966608,54.5702752 L96.1687316,159.201468 L23.3828909,159.201468 L124.333687,54.5702752 Z M368.640944,9.86422018 C342.374749,9.86422018 305.032448,26.0344954 305.032448,56.7897248 C305.032448,68.2040367 311.045192,77.7159633 323.387139,77.7159633 C333.513864,77.7159633 342.374749,72.6429358 342.374749,60.5944954 C342.374749,49.4972477 330.349263,46.3266055 330.349263,39.0341284 C330.349263,27.6198165 354.083776,22.546789 361.67882,22.546789 C385.096873,22.546789 397.75528,33.3269725 397.75528,57.4238532 C397.75528,80.5695413 380.03351,111.641835 354.400236,111.641835 C348.071032,111.641835 342.058289,110.373578 335.729086,110.373578 C331.298643,110.373578 326.55174,112.910092 326.55174,118.300183 C326.55174,123.690275 331.298643,126.226789 336.045546,126.226789 C340.792448,126.226789 344.906431,124.324404 354.083776,124.324404 C373.704307,124.324404 380.349971,143.348257 380.349971,159.201468 C380.349971,192.493211 362.628201,225.46789 324.96944,225.46789 C313.893333,225.46789 288.576519,221.028991 288.576519,206.126972 C288.576519,202.005138 292.057581,200.736881 295.222183,199.785688 C303.450147,197.249174 309.462891,190.90789 309.462891,181.395963 C309.462891,170.61578 300.285546,162.055046 289.84236,162.055046 C274.968732,162.055046 267.690147,174.103486 267.690147,187.737248 C267.690147,223.882569 296.804484,238.150459 329.083422,238.150459 C372.438466,238.150459 412.628909,210.565872 412.628909,164.274495 C412.628909,138.909358 396.48944,122.739083 372.438466,118.617248 L372.438466,118.300183 C401.869263,109.422385 428.451917,96.1056881 428.451917,59.960367 C428.451917,26.6686239 398.704661,9.86422018 368.640944,9.86422018 L368.640944,9.86422018 Z M544.592802,9.86422018 C518.326608,9.86422018 480.984307,26.0344954 480.984307,56.7897248 C480.984307,68.2040367 486.99705,77.7159633 499.338997,77.7159633 C509.465723,77.7159633 518.326608,72.6429358 518.326608,60.5944954 C518.326608,49.4972477 506.301121,46.3266055 506.301121,39.0341284 C506.301121,27.6198165 530.035634,22.546789 537.630678,22.546789 C561.048732,22.546789 573.707139,33.3269725 573.707139,57.4238532 C573.707139,80.5695413 555.985369,111.641835 530.352094,111.641835 C524.022891,111.641835 518.010147,110.373578 511.680944,110.373578 C507.250501,110.373578 502.503599,112.910092 502.503599,118.300183 C502.503599,123.690275 507.250501,126.226789 511.997404,126.226789 C516.744307,126.226789 520.858289,124.324404 530.035634,124.324404 C549.656165,124.324404 556.301829,143.348257 556.301829,159.201468 C556.301829,192.493211 538.580059,225.46789 500.921298,225.46789 C489.845192,225.46789 464.528378,221.028991 464.528378,206.126972 C464.528378,202.005138 468.00944,200.736881 471.174041,199.785688 C479.402006,197.249174 485.414749,190.90789 485.414749,181.395963 C485.414749,170.61578 476.237404,162.055046 465.794218,162.055046 C450.92059,162.055046 443.642006,174.103486 443.642006,187.737248 C443.642006,223.882569 472.756342,238.150459 505.03528,238.150459 C548.390324,238.150459 588.580767,210.565872 588.580767,164.274495 C588.580767,138.909358 572.441298,122.739083 548.390324,118.617248 L548.390324,118.300183 C577.821121,109.422385 604.403776,96.1056881 604.403776,59.960367 C604.403776,26.6686239 574.656519,9.86422018 544.592802,9.86422018 L544.592802,9.86422018 Z" id="4-33" fill="#333333" sketch:type="MSShapeGroup"></path>
        </g>
    </g>
</svg>
